X: 11735
T: Eleanor Neary's
R: hornpipe
M: 4/4
K: Gmajor
|:B3c BAGF|EB,EF G3 A|BAGB edBG|ABAG EDGA|
B3c BAGF|EB,EF G2 ge|dBcA BGAF|1 G2 G2 G2 GA:|2 G2 G2 G2 DC||
|:B,G,B,D ECEG|FDFA G2 GA|BAGB c3 B|ABGE D2 DC|
B,G,B,D ECEG|FDFA G2 ge|dBcA BGAF|1 G2 G2 G2 DC:|2 G2 G2 G2 GA||

